styles/4/Numix/22/places/pink-folder-wine.svg

<?xml version="1.0" encoding="UTF-8" standalone="no"?>
<!-- Created with Inkscape (http://www.inkscape.org/) -->

<svg
   xmlns:dc="http://purl.org/dc/elements/1.1/"
   xmlns:cc="http://creativecommons.org/ns#"
   xmlns:rdf="http://www.w3.org/1999/02/22-rdf-syntax-ns#"
   xmlns:svg="http://www.w3.org/2000/svg"
   xmlns="http://www.w3.org/2000/svg"
   xmlns:sodipodi="http://sodipodi.sourceforge.net/DTD/sodipodi-0.dtd"
   xmlns:inkscape="http://www.inkscape.org/namespaces/inkscape"
   width="22"
   height="22"
   id="svg2"
   version="1.1"
   inkscape:version="0.91 r"
   sodipodi:docname="pink-folder-wine.svg"
   inkscape:export-filename="/media/Data/Main/Visuals/Icons/Numix/Desktop/repos/numix-wiki/Gjorgi/Numix-folders/48/New/folder-144.png"
   inkscape:export-xdpi="270"
   inkscape:export-ydpi="270">
  <defs
     id="defs4" />
  <sodipodi:namedview
     id="base"
     pagecolor="#ffffff"
     bordercolor="#666666"
     borderopacity="1.0"
     inkscape:pageopacity="0.0"
     inkscape:pageshadow="2"
     inkscape:zoom="13.928809"
     inkscape:cx="0.86568746"
     inkscape:cy="8.2948487"
     inkscape:document-units="px"
     inkscape:current-layer="layer1"
     showgrid="true"
     inkscape:window-width="1280"
     inkscape:window-height="998"
     inkscape:window-x="0"
     inkscape:window-y="0"
     inkscape:window-maximized="1"
     showguides="true"
     inkscape:guide-bbox="true">
    <inkscape:grid
       type="xygrid"
       id="grid2985"
       empspacing="5"
       visible="true"
       enabled="true"
       snapvisiblegridlinesonly="true" />
  </sodipodi:namedview>
  <metadata
     id="metadata7">
    <rdf:RDF>
      <cc:Work
         rdf:about="">
        <dc:format>image/svg+xml</dc:format>
        <dc:type
           rdf:resource="http://purl.org/dc/dcmitype/StillImage" />
        <dc:title />
      </cc:Work>
    </rdf:RDF>
  </metadata>
  <g
     inkscape:label="Layer 1"
     inkscape:groupmode="layer"
     id="layer1"
     transform="translate(0,-1030.3622)">
    <path
       inkscape:connector-curvature="0"
       id="path2998"
       d="m 2,1032.3622 17,0 c 1,0 2,1 2,2 l 0,4 c 0,1.108 -0.446,2 -1,2 l -18,0 c -0.554,0 -1,-0.892 -1,-2 l 0,-6 z"
       style="fill:#ec407a;fill-opacity:1;stroke:none"
       sodipodi:nodetypes="csssssscc" />
    <path
       style="opacity:0.02999998;fill:#000000;fill-opacity:1;stroke:none"
       d="m 1,1034.3622 0,5 20,0 0,-5 z"
       id="path3807"
       inkscape:connector-curvature="0" />
    <rect
       style="fill:#f06292;fill-opacity:1;stroke:none"
       id="rect2990"
       width="22"
       height="17"
       x="0"
       y="1035.3622"
       rx="2"
       ry="2" />
    <path
       sodipodi:nodetypes="csssscc"
       inkscape:connector-curvature="0"
       id="path3000"
       d="m 1,1033.3622 0,-1 c 0,-1 0,-2 1,-2 l 4,0 c 1,0 1,1 1,2 l 0,1 z"
       style="fill:#ec407a;fill-opacity:1;stroke:none" />
    <path
       style="opacity:0.05;fill:#000000;fill-opacity:1;stroke:none"
       d="m 7,1032.3622 0,1 1,0 11,0 c 1,0 2,1 2,2 l 0,-1 c 0,-1 -1,-2 -2,-2 l -11,0 z"
       id="path3002"
       inkscape:connector-curvature="0"
       sodipodi:nodetypes="cccscsscc" />
    <path
       style="opacity:0.05;fill:#000000;fill-opacity:1;stroke:none"
       d="m 2,1030.3622 c -1,0 -1,1 -1,2 l 0,0.25 c 0.046875,-0.7031 0.25,-1.25 1,-1.25 l 4,0 c 0.75,0 0.953125,0.5469 1,1.25 l 0,-0.25 c 0,-1 0,-2 -1,-2 l -4,0 z"
       id="path3780"
       inkscape:connector-curvature="0" />
    <path
       style="opacity:0.1;fill:#ffffff;fill-opacity:1;stroke:none"
       d="m 2,1035.3622 c -0.7419013,0 -1.3734731,0.4031 -1.71875,1 l 21.4375,0 c -0.345277,-0.5969 -0.976849,-1 -1.71875,-1 l -18,0 z"
       id="rect2991"
       inkscape:connector-curvature="0" />
    <path
       style="line-height:normal;opacity:1.0;color:#000000;fill:#c64077;fill-opacity:1"
       d="M 10.5 9 C 10.223858 9 10 9.2238 10 9.5 C 10 9.7762 10.223858 10 10.5 10 C 10.776142 10 11 9.7762 11 9.5 C 11 9.2238 10.776142 9 10.5 9 z M 14.875 9 C 14.430835 9.01 14.00743 9.28625 13.9375 9.78125 C 13.825612 10.57335 14.641171 10.25 15.3125 10.25 C 15.983828 10.25 16.230332 11.5569 16.0625 12.25 C 15.894667 12.943 14.096304 14.5747 10.0625 12.9375 C 6.741403 11.5898 5.083679 13.37035 5 13.40625 C 5.314303 16.08385 7.89086 19 11 19 C 14.321433 19 17 15.8141 17 12.875 C 17 12.5374 16.942918 12.1951 16.875 11.875 C 16.81325 11.7133 16.764091 11.55345 16.71875 11.40625 C 16.63747 11.14255 16.547439 10.92565 16.46875 10.71875 C 16.46535 10.70875 16.47225 10.6935 16.46875 10.6875 C 16.150811 10.0626 15.70723 9.50005 15.15625 9.03125 C 15.15375 9.02125 15.12748 9.04125 15.125 9.03125 C 15.0389 9.01225 14.963832 8.998 14.875 9 z M 13 11 C 12.447715 11 12 11.4477 12 12 C 12 12.5523 12.447715 13 13 13 C 13.552285 13 14 12.5523 14 12 C 14 11.4477 13.552285 11 13 11 z "
       transform="translate(0,1030.3622)"
       id="path3974-6" />
  </g>
</svg>

<!-- Created with Inkscape (http://www.inkscape.org/) -->
<svg xmlns="http://www.w3.org/2000/svg" viewBox="0 0 22 22">
 <g transform="translate(0,-1030.3622)">
  <path d="m 2 1032.36 17 0 c 1 0 2 1 2 2 l 0 4 c 0 1.108 -0.446 2 -1 2 l -18 0 c -0.554 0 -1 -0.892 -1 -2 l 0 -6 z" style="fill:#ec407a;fill-opacity:1;stroke:none"/>
  <path d="m 1 1034.36 0 5 20 0 0 -5 z" style="fill:#000;opacity:0.03;fill-opacity:1;stroke:none"/>
  <rect width="22" height="17" y="1035.36" rx="2" style="fill:#f06292;fill-opacity:1;stroke:none"/>
  <path d="m 1 1033.36 0 -1 c 0 -1 0 -2 1 -2 l 4 0 c 1 0 1 1 1 2 l 0 1 z" style="fill:#ec407a;fill-opacity:1;stroke:none"/>
  <path d="m 7 1032.36 0 1 1 0 11 0 c 1 0 2 1 2 2 l 0 -1 c 0 -1 -1 -2 -2 -2 l -11 0 z" style="fill:#000;opacity:0.05;fill-opacity:1;stroke:none"/>
  <path d="m 2 1030.36 c -1 0 -1 1 -1 2 l 0 0.25 c 0.047 -0.703 0.25 -1.25 1 -1.25 l 4 0 c 0.75 0 0.953 0.547 1 1.25 l 0 -0.25 c 0 -1 0 -2 -1 -2 l -4 0 z" style="fill:#000;opacity:0.05;fill-opacity:1;stroke:none"/>
  <path d="m 2 1035.36 c -0.742 0 -1.373 0.403 -1.719 1 l 21.438 0 c -0.345 -0.597 -0.977 -1 -1.719 -1 l -18 0 z" style="fill:#fff;opacity:0.1;fill-opacity:1;stroke:none"/>
  <path d="m 10.5 9 c -0.276 0 -0.5 0.224 -0.5 0.5 c 0 0.276 0.224 0.5 0.5 0.5 c 0.276 0 0.5 -0.224 0.5 -0.5 c 0 -0.276 -0.224 -0.5 -0.5 -0.5 z m 4.375 0 c -0.444 0.01 -0.868 0.286 -0.938 0.781 c -0.112 0.792 0.704 0.469 1.375 0.469 c 0.671 0 0.918 1.307 0.75 2 c -0.168 0.693 -1.966 2.325 -6 0.688 c -3.321 -1.348 -4.979 0.433 -5.063 0.469 c 0.314 2.678 2.891 5.594 6 5.594 c 3.321 0 6 -3.186 6 -6.125 c 0 -0.338 -0.057 -0.68 -0.125 -1 c -0.062 -0.162 -0.111 -0.322 -0.156 -0.469 c -0.081 -0.264 -0.171 -0.481 -0.25 -0.688 c -0.003 -0.01 0.003 -0.025 0 -0.031 c -0.318 -0.625 -0.762 -1.187 -1.313 -1.656 c -0.002 -0.01 -0.029 0.01 -0.031 0 c -0.086 -0.019 -0.161 -0.033 -0.25 -0.031 z m -1.875 2 c -0.552 0 -1 0.448 -1 1 c 0 0.552 0.448 1 1 1 c 0.552 0 1 -0.448 1 -1 c 0 -0.552 -0.448 -1 -1 -1 z" transform="translate(0,1030.3622)" style="fill:#c64077;opacity:1;fill-opacity:1;color:#000"/>
 </g>
</svg>
